icons/svg/shopping/fashion.svg

<?xml version="1.0" encoding="UTF-8" standalone="no"?>
<!-- Created with Inkscape (http://www.inkscape.org/) -->

<svg
   xmlns:dc="http://purl.org/dc/elements/1.1/"
   xmlns:cc="http://creativecommons.org/ns#"
   xmlns:rdf="http://www.w3.org/1999/02/22-rdf-syntax-ns#"
   xmlns:svg="http://www.w3.org/2000/svg"
   xmlns="http://www.w3.org/2000/svg"
   xmlns:sodipodi="http://sodipodi.sourceforge.net/DTD/sodipodi-0.dtd"
   xmlns:inkscape="http://www.inkscape.org/namespaces/inkscape"
   version="1.0"
   width="580"
   height="580"
   id="svg2"
   sodipodi:version="0.32"
   inkscape:version="0.48.4 r9939"
   sodipodi:docname="boutique.svg"
   inkscape:output_extension="org.inkscape.output.svg.inkscape">
  <metadata
     id="metadata10">
    <rdf:RDF>
      <cc:Work
         rdf:about="">
        <dc:format>image/svg+xml</dc:format>
        <dc:type
           rdf:resource="http://purl.org/dc/dcmitype/StillImage" />
        <cc:license
           rdf:resource="http://web.resource.org/cc/PublicDomain" />
        <dc:language>en</dc:language>
        <dc:title />
      </cc:Work>
    </rdf:RDF>
  </metadata>
  <sodipodi:namedview
     inkscape:window-height="739"
     inkscape:window-width="1332"
     inkscape:pageshadow="2"
     inkscape:pageopacity="0.0"
     guidetolerance="10.0"
     gridtolerance="10.0"
     objecttolerance="10.0"
     borderopacity="1.0"
     bordercolor="#666666"
     pagecolor="#ffffff"
     id="base"
     showgrid="false"
     inkscape:zoom="0.5"
     inkscape:cx="69.168008"
     inkscape:cy="208.18808"
     inkscape:window-x="34"
     inkscape:window-y="1024"
     inkscape:current-layer="svg2"
     inkscape:window-maximized="1" />
  <defs
     id="defs4">
    <clipPath
       id="clipoutline2"
       clipPathUnits="userSpaceOnUse">
      <path
         d="M 55.8,12 L 56.56,12.16 C 65.4,9.22 85.24,20.8 80.82,31.12 C 79.7,32.74 79.89,35.62 81.24,37.43 L 56.43,62.25 C 55.04,60.86 51.95,60.89 50.53,62.25 L 9.5,101.63 C 5.76,105.22 8.7,108.27 10.28,109.88 L 17.64,117.24 C 19.25,118.84 23.5,121 26.52,117.8 L 65.24,76.99 C 66.59,75.57 66.6,72.52 65.24,71.12 C 65.24,71.12 65.25,71.1 65.24,71.1 L 90.15,46.2 C 92.78,48.57 95.263827,48.774854 97.62,48.13 C 102.17057,46.884568 104.70725,51.336643 107.43,54.59 L 106.2,55.8 C 104.38,57.64 104.55,60.74 106.59,62.78 C 108.63,64.82 111.74,64.99 113.56,63.17 L 121.7,55.04 C 123.52,53.2 123.35,50.1 121.3,48.07 C 119.46,46.22 116.79,45.98 114.93,47.3 C 109.35,41.04 112.28,40.1 104.92,31.95 L 91.13,17.86 C 81.2,8.12 68.3,8.13 55.8,12 z"
         id="outline2" />
    </clipPath>
    <clipPath
       id="clipoutline1"
       clipPathUnits="userSpaceOnUse">
      <path
         d="M 22.42,17.2 L 35.38,30.15 L 32.88,38.93 L 24.1,41.43 L 11.14,28.47 L 5.28,34.33 L 20.17,55.79 L 37.73,52.45 L 99.36,118.07 C 108.8,127.58 121.53,113.32 112.7,105.2 L 46.85,42.92 L 50.86,25.16 L 28.72,10.89 L 22.42,17.2 z M 103.48,109.17 C 105.16,107.49 107.88,107.49 109.56,109.17 C 111.24,110.85 111.24,113.57 109.56,115.25 C 107.88,116.92 105.16,116.92 103.48,115.25 C 101.8,113.57 101.8,110.85 103.48,109.17 z"
         id="outline1" />
    </clipPath>
    <inkscape:perspective
       sodipodi:type="inkscape:persp3d"
       inkscape:vp_x="0 : 290 : 1"
       inkscape:vp_y="0 : 1000 : 0"
       inkscape:vp_z="580 : 290 : 1"
       inkscape:persp3d-origin="290 : 193.33333 : 1"
       id="perspective12" />
    <style
       type="text/css"
       id="style6">
   
    .fil0 {fill:#EF7900}
   
  </style>
    <inkscape:perspective
       id="perspective6807"
       inkscape:persp3d-origin="29.116032 : 19.410688 : 1"
       inkscape:vp_z="58.232063 : 29.116032 : 1"
       inkscape:vp_y="0 : 1000 : 0"
       inkscape:vp_x="0 : 29.116032 : 1"
       sodipodi:type="inkscape:persp3d" />
    <inkscape:perspective
       id="perspective6954"
       inkscape:persp3d-origin="290 : 193.33333 : 1"
       inkscape:vp_z="580 : 290 : 1"
       inkscape:vp_y="0 : 1000 : 0"
       inkscape:vp_x="0 : 290 : 1"
       sodipodi:type="inkscape:persp3d" />
    <marker
       viewBox="0 0 10 10"
       refY="5"
       refX="10"
       orient="auto"
       markerWidth="4"
       markerUnits="strokeWidth"
       markerHeight="3"
       id="ArrowStart">
      <path
         id="path2295"
         d="M 10 0 L 0 5 L 10 10 z" />
    </marker>
    <marker
       viewBox="0 0 10 10"
       refY="5"
       refX="0"
       orient="auto"
       markerWidth="4"
       markerUnits="strokeWidth"
       markerHeight="3"
       id="ArrowEnd">
      <path
         id="path2292"
         d="M 0 0 L 10 5 L 0 10 z" />
    </marker>
    <inkscape:perspective
       id="perspective7597"
       inkscape:persp3d-origin="178.5405 : 158.483 : 1"
       inkscape:vp_z="357.08099 : 237.7245 : 1"
       inkscape:vp_y="0 : 1000 : 0"
       inkscape:vp_x="0 : 237.7245 : 1"
       sodipodi:type="inkscape:persp3d" />
  </defs>
  <g
     id="g1327"
     transform="translate(0.5,-0.5)">
    <path
       d="M 66.275,1.768 C 24.94,1.768 1.704,23.139 1.704,66.804 l 0,450.123 c 0,40.844 20.894,62.229 62.192,62.229 l 452.024,0 c 41.307,0 62.229,-20.316 62.229,-62.229 l 0,-450.123 c 0,-42.601 -20.922,-65.036 -63.522,-65.036 -0.003,0 -448.494,-0.143 -448.352,0 z"
       style="fill:#111111;stroke:#eeeeee;stroke-width:3.40799999"
       id="path1329"
       inkscape:connector-curvature="0" />
  </g>
  <g
     id="g2319"
     transform="translate(879.29125,36.805119)">
    <path
       id="path2323"
       style="fill:#ffffff;stroke:none"
       d="" />
  </g>
  <g
     id="g2325"
     transform="translate(879.29125,36.805119)">
    <path
       id="path2329"
       style="fill:#ffffff;stroke:none"
       d="" />
  </g>
  <path
     style="fill:#ffffff;fill-opacity:1;stroke:none"
     d="M 210.76506,92.023755 164.876,102.37914 c -11.06518,3.68839 -18.43616,11.06027 -23.96875,20.28125 l -75.625004,116.1875 c -5.53259,7.3768 -7.375,14.74822 -7.375,22.125 l 0,142 55.343754,0 0,-36.875 -36.906254,0 36.906254,-18.4375 0,-57.1875 c 0,-5.53259 1.84285,-11.0616 5.53125,-14.75 L 167.126,204.62914 c 0,0 16.26874,74.20508 16.28427,126.19719 0.0155,51.99212 -33.28427,127.49031 -33.28427,127.49031 -2.44277,9.88795 57.79723,18.4375 129.09375,18.4375 32.54403,0 62.26305,-1.72467 84.96875,-4.5625 -5.1535,-3.86305 -9.11574,-9.29334 -11.22197,-15.37984 -2.10623,-6.0865 -2.34783,-12.80433 -0.68428,-19.02641 l 9.875,-36.84375 c 2.35909,-8.73043 2.41509,-16.35483 10.46875,-20.46875 -16.78675,-16.47939 -21.12337,-43.02299 -21.4375,-62.0625 0,-34.13459 7.12659,-54.37962 38.90136,-69.91361 l 4.19239,-37.08639 20.16736,-4.80752 c 0,0 14.82462,-6.69079 23.33264,-6.69248 l 30.03125,0 -50.28125,-77.25 c -5.53259,-9.22098 -14.74777,-16.59286 -23.96875,-20.28125 l -45.88906,-9.218745 c -31.72031,41.840585 -93.36008,59.559165 -136.90938,-1.13664 z"
     id="path11"
     inkscape:connector-curvature="0"
     sodipodi:nodetypes="ccccscccccscczsscsccccccccccccc" />
  <path
     style="color:#000000;fill:#ffffff;fill-opacity:1;fill-rule:nonzero;stroke:none;stroke-width:30;marker:none;visibility:visible;display:inline;overflow:visible;enable-background:accumulate"
     d="m 437.76392,232.39449 0,29.47137 c -34.40806,7.37317 -54.05126,29.52327 -54.05126,56.55817 0,31.95036 22.1501,46.65419 56.55816,58.94278 24.5772,7.37317 34.36291,14.79817 34.36291,27.08677 0,12.28859 -12.26734,19.62721 -29.47139,19.62721 -19.66175,0 -39.31692,-7.36255 -51.6055,-14.73569 l -9.84418,36.8698 c 12.28859,4.91546 31.93179,12.28995 54.05126,12.28995 l 0,29.47139 31.97829,0 0,-31.91715 c 36.86577,-4.91543 56.52093,-29.51128 51.6055,-59.00393 0,-29.49261 -14.73973,-46.71533 -51.6055,-59.00391 -24.57722,-9.83088 -36.86981,-17.19476 -36.86981,-27.02563 0,-7.37316 7.36389,-17.18146 27.02563,-17.18146 24.57719,0 39.34083,7.37451 46.71398,12.28994 l 9.84419,-36.86981 c -12.28859,-4.91544 -24.59453,-9.84419 -46.71399,-9.84419 l 0,-27.02561 z"
     id="path3807"
     inkscape:connector-curvature="0"
     sodipodi:nodetypes="ccscssccccccccssccccc" />
</svg>

<svg width="580" height="580" viewBox="0 0 580 580" fill="none" xmlns="http://www.w3.org/2000/svg">
<g clip-path="url(#clip0)">
<path d="M66.7751 1.26766C25.4401 1.26766 2.2041 22.6387 2.2041 66.3037V516.427C2.2041 557.271 23.0981 578.656 64.3961 578.656H516.42C557.727 578.656 578.649 558.34 578.649 516.427V66.3037C578.649 23.7027 557.727 1.26766 515.127 1.26766C515.124 1.26766 66.6331 1.12466 66.7751 1.26766V1.26766Z" fill="#111111" stroke="#EEEEEE" stroke-width="3.408"/>
<path d="M210.765 92.0234L164.876 102.379C153.811 106.067 146.44 113.439 140.907 122.66L65.2822 238.848C59.7496 246.224 57.9072 253.596 57.9072 260.973V402.973H113.251V366.098H76.3447L113.251 347.66V290.473C113.251 284.94 115.094 279.411 118.782 275.723L167.126 204.629C167.126 204.629 183.395 278.834 183.41 330.826C183.426 382.818 150.126 458.316 150.126 458.316C147.683 468.204 207.923 476.754 279.22 476.754C311.764 476.754 341.483 475.029 364.188 472.191C359.035 468.328 355.073 462.898 352.966 456.811C350.86 450.725 350.619 444.007 352.282 437.785L362.157 400.941C364.516 392.211 364.572 384.587 372.626 380.473C355.839 363.993 351.503 337.45 351.188 318.41C351.188 284.275 358.315 264.03 390.09 248.496L394.282 211.41L414.45 206.603C414.45 206.603 429.274 199.912 437.782 199.91H467.813L417.532 122.66C412 113.439 402.784 106.067 393.563 102.379L347.674 93.1601C315.954 135.001 254.314 152.719 210.765 92.0234V92.0234Z" fill="white"/>
<path d="M437.764 232.395V261.866C403.356 269.239 383.713 291.389 383.713 318.424C383.713 350.374 405.863 365.078 440.271 377.367C464.848 384.74 474.634 392.165 474.634 404.454C474.634 416.742 462.367 424.081 445.163 424.081C425.501 424.081 405.846 416.718 393.557 409.345L383.713 446.215C396.001 451.13 415.645 458.505 437.764 458.505V487.976H469.742V456.059C506.608 451.144 526.263 426.548 521.348 397.055C521.348 367.563 506.608 350.34 469.742 338.051C445.165 328.22 432.873 320.857 432.873 311.026C432.873 303.653 440.237 293.844 459.898 293.844C484.475 293.844 499.239 301.219 506.612 306.134L516.456 269.264C504.168 264.349 491.862 259.42 469.742 259.42V232.395H437.764Z" fill="white"/>
</g>
<defs>
<clipPath id="clip0">
<path d="M0 0H580V580H0V0Z" fill="white"/>
</clipPath>
</defs>
</svg>
